X: 10941
T: RUBY -- Hornpipe
R: hornpipe
B: K\"ohler's Violin Repository, v.1, 1885 p.94 #1
F: http://www.archive.org/details/klersviolinrepos01edin
Z: 2012 John Chambers <jc:trillian.mit.edu>
M: C|
L: 1/8
K: F
u(c>A) |\
(F>A)c>A (F>B)d>B | (A>c)f>c (a>f)c>A | (B>d)g>b (A>c)f>a | (3gaf (3efd (3cdB (3ABG |
(F>A)c>A (F>B)d>B | (A>c)f>c (a>f)c>A | (B>d)g>b a>gf>e | g2[f2A2][f2A2] :|
|: u(ef) |\
g>c (3ccc c2a>c | g>c (3ccc c2g>a | (b>a)g>f (g>f)e>f | (3gaf (3efd (3cdB (3ABG |
(F>A)c>A (F>B)d>B | (A>c)f>c (a>f)c>A | (B>d)g>b a>gf>e | g2[f2A2][f2A2] :|

%%sep 2 1 500

